X:1
T:Title
%%score { ( 1 2 ) | ( 3 4 ) }
L:1/8
M:4/4
K:F
V:1 treble nm="Grand Piano"
V:2 treble 
V:3 bass 
V:4 bass 
V:1
 z4 z2[Q:1/4=100] z G | A2 AA [FA]<[FB] [EG]2 | F6 FA | c2 c>d c2 [GB][FA] | %4
 [GB]2 [GB]>[Ac] [GB]2 [FA][EG] |[M:3/4] A2 A>B A2 |[M:1/4] GF | %7
[M:4/4] EF[B,EG][CFA] [DGB]2 [EGc]2 | A2 FG A<A [EG]2 |[M:3/4] F6 |[M:1/4] c2 |[M:4/4] c6 z2 | %12
 A6 z2 | z4 z2 [EG]2 |[M:3/4] [FA]2 z2 z2 |[M:1/4] d2 |[M:4/4] c6 z2 | A6 z2 | %18
 [A,CF]2 [A,F][B,FG] [CFA]<[CFA] [B,EG]2 |[M:3/4] [A,F]6 |] %20
V:2
 z4 z2 F2 | x8 | x8 | x8 | x8 |[M:3/4] x6 |[M:1/4] x2 |[M:4/4] x8 | x8 |[M:3/4] x6 |[M:1/4] x2 | %11
[M:4/4] z2 G2 F2 B2 | z2 F2 F2 [CFA]2 | [CEB]2 [CEB][DFB] [EGB]<[EGB] CC |[M:3/4] C<C [GB]2 [Ac]2 | %15
[M:1/4] x2 |[M:4/4] z2 G2 F2 B2 | z2 F2 F2 [B,DG]2 | x8 |[M:3/4] x6 |] %20
V:3
 z4 z2 A,B, | [F,CF]2 [F,CF][F,CF] [C,C]<[C,C] [C,B,]2 | [F,A,]6 [F,A,][F,CF] | %3
 [F,A,F]2 [F,A,F]>[F,B,F] [F,A,F]2 [F,C][F,C] | [C,C]2 [C,C]>[C,C] [C,C]2 [C,C][C,C] | %5
[M:3/4] [F,CF]2 [F,CF]>[F,CG] [F,CF]2 |[M:1/4] [F,B,C][F,A,C] |[M:4/4] [C,C]2 z2 z4 | %8
 [F,F]2 [A,C][B,DF] [CF]<[CF][K:bass] [C,B,]2 |[M:3/4] [F,A,]6 |[M:1/4] z2 | %11
[M:4/4] z2 [B,E]2 [A,E]2 D2 | C6 z2 | C,2 C,C, C,<C, C,C, |[M:3/4] F,<F, [F,E]2 [F,F]2 | %15
[M:1/4] z2 |[M:4/4] z2 [B,E]2 A,2 D2 | C6 z2 | C,2 C,C, C,<C, C,2 |[M:3/4] F,6 |] %20
V:4
 z4 z2 F,2 | x8 | x8 | x8 | x8 |[M:3/4] x6 |[M:1/4] x2 |[M:4/4] G,A,C,C, C,2 C,2 | x6[K:bass] x2 | %9
[M:3/4] x6 |[M:1/4] x2 |[M:4/4] x8 | z2 F,2 F,2 F,2 | x8 |[M:3/4] x6 |[M:1/4] x2 |[M:4/4] x8 | %17
 z2 F,2 F,2 B,,2 | x8 |[M:3/4] x6 |] %20

